packages/core/src/svg/icon-search.svg

<?xml version="1.0" encoding="UTF-8"?>
<svg xmlns="http://www.w3.org/2000/svg" width="100%" height="100%" viewBox="0 0 24 24">
  <path d="M15.3582734,0.0535251799 C12.0567815,0.0517959979 9.04784082,1.94662012 7.62269829,4.92467659 C6.19755575,7.90273306 6.6096026,11.4345925 8.68201439,14.0046043 L0.00920863309,22.676259 L1.30820144,23.9758273 L9.98273381,15.3035971 C12.9168981,17.6690044 17.0515408,17.841428 20.1724602,15.7285309 C23.2933795,13.6156338 24.6689728,9.71271903 23.5625765,6.10989254 C22.4561801,2.50706606 19.1271543,0.0488985453 15.3582734,0.0517959979 L15.3582734,0.0535251799 Z M15.3582734,15.3657554 C11.637384,15.3657554 8.62100719,12.3493786 8.62100719,8.62848921 C8.62100719,4.90759984 11.637384,1.89122302 15.3582734,1.89122302 C19.0791628,1.89122302 22.0955396,4.90759984 22.0955396,8.62848921 C22.0917339,12.3479875 19.0777709,15.3624653 15.3582734,15.3669065 L15.3582734,15.3657554 Z" />
</svg>

<?xml version="1.0" encoding="UTF-8"?><svg viewBox="0 0 24 24" xmlns="http://www.w3.org/2000/svg"><path d="m15.358 0.053525c-3.3015-0.0017292-6.3104 1.8931-7.7356 4.8712-1.4251 2.9781-1.0131 6.5099 1.0593 9.0799l-8.6728 8.6717 1.299 1.2996 8.6745-8.6722c2.9342 2.3654 7.0688 2.5378 10.19 0.42493 3.1209-2.1129 4.4965-6.0158 3.3901-9.6186-1.1064-3.6028-4.4354-6.061-8.2043-6.0581v0.0017292zm0 15.312c-3.7209 0-6.7373-3.0164-6.7373-6.7373 0-3.7209 3.0164-6.7373 6.7373-6.7373s6.7373 3.0164 6.7373 6.7373c-0.0038057 3.7195-3.0178 6.734-6.7373 6.7384v-0.0011511z"/></svg>
